X: 4389
T: SWISS GALOP
R: Galop
R: galop, polka, march
B: James Kerr "Merry Melodies" v.4 p.42 #389
Z: 2016 John Chambers <jc:trillian.mit.edu>
M: 2/4
L: 1/8
K: C
|:\
G>cc2 | G>ee2 | gdgd | ecec |\
G>cc2 | G>ee2 | gdgd | cz [cE]z ::\
d>ed>^c | (dg)d2 | (ba)(ba) | (ag)(ag) |\
d>ed>^c | (dg)d2 | (ba)(ba) | gz [gB]z :|

%%sep 1 1 500
%%sep 1 1 500

